X: 2056
Q: "Reel."
M: C
L: 1/8
K: Am
ue |\
cA A/A/A A2AB | cde^f gece |\
fd d/d/d d2df | eE E/E/E A2A ::\
c |\
f2(ed) ecAc |\
[1 A/A/A a2 gece | fdec {cB}A2(Ac) :|\
[2 GEcE GEEc | D/D/D E^G A2A |]


